X:1
T:Title
%%score { 1 | 2 }
L:1/8
M:3/4
K:F
V:1 treble nm="Grand Piano"
V:2 bass 
V:1
 z2 z2[Q:1/4=100] FG | A2 c2 FG | A2 c2 BA | [B,DG]2 [DGB]2 [CFA][B,EG] |[M:2/4] F4 |[M:1/4] FG | %6
[M:3/4] A2 c2 FG | A2 c2 BA | [B,DG]2 [DGB]2 [CFA][B,EG] |[M:2/4] F4 |[M:1/4] AB | %11
[M:3/4] c2 c2 [GB]A | B2 B2 [FA][EG] | A2 A2 BA |[M:2/4] [EG]4 |[M:1/4] FG |[M:3/4] A2 c2 FG | %17
 A2 c2 BA | [B,DG]2 [DGB]2 [CFA][B,EG] |[M:6/4] .[A,F]6 z6 |] %20
V:2
 z2 z2 [F,A,][F,B,F] | [F,CF]2 [F,A,F]2 [A,C][G,CE] | [F,CF]2 [F,A,F]2 [F,DF][F,CF] | %3
 B,,2 G,,2 C,C, |[M:2/4] [F,A,]4 |[M:1/4] [F,A,][F,B,F] |[M:3/4] [F,CF]2 [F,A,F]2 [A,C][G,CE] | %7
 [F,CF]2 [F,A,F]2 [F,DF][F,CF] | B,,2 G,,2 C,C, |[M:2/4] [F,A,]4 |[M:1/4] [F,F][F,G,F] | %11
[M:3/4] [F,A,F]2 [F,A,F]2 [E,C][F,CF] | [G,CE]2 [G,CE]2 [C,C][C,C] | [F,CF]2 [F,CF]2 [F,DF][F,CF] | %14
[M:2/4] [C,C]4 |[M:1/4] [F,A,][F,B,F] |[M:3/4] [F,CF]2 [F,A,F]2 [A,C][G,CE] | %17
 [F,CF]2 [F,A,F]2 [F,DF][F,CF] | B,,2 G,,2 C,C, |[M:6/4] .F,6 z6 |] %20

